!!!!SEGMENT: pl-wtm--670-sp-3678--001-010_reinecke-carl--piosenki-dla-mlodocianego-wieku-piotr-maszynski-10-tratwa.krn
!!!cenid: 18xx:4762
!!!COM: Reinecke, Carl
!!!COM-rismID: pe42007
!!!CDT: 1824/06/23-1910/03/10
!!!CNT: German
!!!GTL: Piosenki dla młodocianego wieku (Piotr Maszyński)
!!!OTL: 10. Tratwa
!!!OMV: 010
!!!PDT: 1871
!!!AGN: Secular; Song; Children
!!!YEC: Copyright 2022 Narodowy Instytut Fryderyka Chopina (https://polishscores.org)
!!!YEM: License CC-BY-4.0 (https://creativecommons.org/licenses/by/4.0)
!!!SMS-siglum: PL-Wtm
!!!SMS-shelfmark: 670 śp 3678
!!!SMS-variant:
!!!SMS-altvar:
!!!SMS-shelfwork: 001-010 G
!!!NIFC-rismSourceID: 1001185478
!!!NIFC-rismChildID: 1001185478
!!!NIFC-islandoraID: pl-wtm:57754
!!!URL-pdf-islandora: https://repozytorium.nifc.pl/islandora/object/pl-wtm%3A57754/datastream/PDF/view
!!!URL-scan: https://polish.musicsources.pl/pl/lokalizacje/galeria/druki-muzyczne/19483/8 @EN{Scan on Polish Music Sources Website} @PL{Skany w portalu Dziedzictwo Muzyki Polskiej w otwartym dostępie}
!!!IIIF:
!!!ONB-nifc:
!!!OMD: Andante con moto.
!!!AIN: 1 piano 1 vox
!!!key: G
**kern	**kern	**dynam	**kern	**text	**dynam
*part2	*part2	*part2	*part1	*part1	*part1
*staff3	*staff2	*	*staff1	*staff1	*
*ICklav	*ICklav	*	*ICvox	*	*
*Ipiano	*Ipiano	*	*Ivox	*	*
*I"Fortepian.	*I"Fortepian.	*	*I"Śpiew.	*	*
*I'pf	*I'pf	*	*I'V	*	*
*clefF4	*clefG2	*	*clefG2	*	*
*k[f#]	*k[f#]	*	*k[f#]	*	*
*G:	*G:	*	*G:	*	*
*M6/8	*M6/8	*	*M6/8	*	*
8r	8b 8d/	p	8b\	Ja	.
=1	=1	=1	=1	=1	=1
(8GG/L	(4b 4d/	.	4b\	tra-	.
8D/	.	.	.	.	.
8E/J	8cc 8g/	.	8cc\	-twę	.
8GG/L	4b 4d/	.	4b\	z li-	.
8D/	.	.	.	.	.
8E/J	8a 8g/)	.	8a/	-ści	.
=2	=2	=2	=2	=2	=2
8GG/L	(4.b 4.d/	.	4.b\	zro-	.
8D/	.	.	.	.	.
8E/J	.	.	.	.	.
8GG/L	8dL 8B/)	.	8d/	-bię,	.
8D/	8r	.	8r	.	.
8E/J)	8eJ 8c/	.	8e/	zo-	.
=3	=3	=3	=3	=3	=3
(8GG/L	(4g 4B^>/	.	4g/	-ba-	.
8D/	.	.	.	.	.
8E/J	8e 8c/	.	8e/	-czysz,	.
8GG/L	4g 4B^>/	.	4g/	ślicz-	.
8D/	.	.	.	.	.
8E/J	8e 8c/)	.	8e/	-na	.
=4	=4	=4	=4	=4	=4
8GG/L	[4.g [4.B/	.	[4.g/	rzecz!	.
8D/	.	.	.	.	.
8E/J	.	.	.	.	.
8D/L	4g] 4B/]	.	4g/]	.	.
8GG/	.	.	.	.	.
8D/J)	8b 8d/	.	8b\	po-	.
!!LO:LB:g=original
=5	=5	=5	=5	=5	=5
(8GG/L	(4b 4d/	.	4b\	-pły-	.
8D/	.	.	.	.	.
8E/J	8cc 8g/	.	8cc\	-nie	.
8GG/L	4b 4d/	.	4b\	z wo-	.
8D/	.	.	.	.	.
8E/J	8a 8g/)	.	8a/	-dą	.
=6	=6	=6	=6	=6	=6
8GG/L	(4.b 4.d/	.	4.b\	so-	.
8D/	.	.	.	.	.
8E/J	.	.	.	.	.
8D/L	4d 4B/)	.	4d/	-bie,	.
8GG/	.	.	.	.	.
8D/J)	8b 8g/	.	8b\	aż	.
=7	=7	=7	=7	=7	=7
8AA/L	4a 4f#/	.	4a/	gdzieś	.
8D/J	.	.	.	.	.
8r	8dd 8f#/	.	8dd\	da-	.
(8AA\L	4cc#X 4e/	.	4cc#X\	-le-	.
8A\J)	.	.	.	.	.
8r	8a 8g/	.	8a/	-ko,	.
=8	=8	=8	=8	=8	=8
(8D\L	4.dd 4.f#/	.	4.dd\	precz!	.
8A\	.	.	.	.	.
8B\J	.	.	.	.	.
8A\L	8r	.	4r	.	.
!	!	!LO:DY:t=più %s	!	!	!
8D\J)	(8f#L 8d'/	f	.	.	.
8r	8gJ 8e'/)	.	8r	.	.
=9	=9	=9	=9	=9	=9
8AA/L	(4a 4f#'/	.	2.r	.	.
8D/J	.	.	.	.	.
8r	8ff# 8a'\)	.	.	.	.
(8AA\L	(4ee 4g'\	.	.	.	.
8A\J)	.	.	.	.	.
8r	8cc#X 8e'/)	.	.	.	.
!!LO:LB:g=original
=10	=10	=10	=10	=10	=10
(8DD/L	[4.dd [4.f#/	>	4r	.	.
8AA/	.	.	.	.	.
8D/J	.	.	8r	.	.
8DD/L	4dd] 4f#/]	.	4r	.	.
8AA/	.	.	.	.	.
8D/J)	8d/	]]	8d/	Na	.
=11	=11	=11	=11	=11	=11
8DD/L	4e 4c/	p	4e/	dru-	.
8AA/	.	.	.	.	.
8D/J	8e/	.	8e/	-gi	.
8DD/L	4cc 4f#/	.	4cc\	brzeg	.
8AA/	.	.	.	.	.
8D/J	8cc\	.	8cc\	się	.
=12	=12	=12	=12	=12	=12
8DD/L	4b 4g/	.	4b\	każ-	.
8GG/	.	.	.	.	.
8D/J	8b 8g/	.	8b\	-dy	.
8DD/L	4d 4B/	.	4d/	nią	.
8GG/	.	.	.	.	.
8D/J	8d 8B/	.	8d/	prze-	.
=13	=13	=13	=13	=13	=13
8DD/L	4c 4A/	.	4c/	-do-	.
8AA/	.	.	.	.	.
8D/J	8c/	.	8c/	-stać	.
8DD/L	4a 4c/	.	4a/	bę-	.
8FF#/	.	.	.	.	.
8D/J	8a 8c/	.	8a/	-dzie	.
=14	=14	=14	=14	=14	=14
8DD/L	4g 4B/	.	4g/	mógł,	.
8GG/	.	.	.	.	.
8D/J	8r	.	8r	.	.
8DD/L	4.d 4.B/	.	4.d^>/	z ga-	.
8GG/	.	.	.	.	.
8D/J	.	.	.	.	.
!!LO:LB:g=original
=15	=15	=15	=15	=15	=15
8DD/L	4e 4c/	<	4e/	-łą-	<
8AA/	.	.	.	.	.
8D/J	8e/	.	8e/	-zki	.
8DD/L	4cc 4f#/	.	4cc\	wio-	.
8AA/	.	.	.	.	.
8D/J	8cc\	[[	8cc\	-sło	[[
=16	=16	=16	=16	=16	=16
4.DD#X/	4.b 4.a 4.f#/	.	4b\	ni-	.
.	.	.	8b\	-by	.
4.EE/	4.b 4.g/	.	4b\	to,	.
.	.	.	8b\	za	.
=17	=17	=17	=17	=17	=17
4C/	4ee 4a 4g\	>	4ee\	prze-	>
8r	8r	.	8dd\	-wo-	.
4D\	4.f# 4.d 4.c/	.	8cc\L	-źni-	.
.	.	.	8b\J	.	.
8ryy	.	]]	8a/	-ka	]]
=18	=18	=18	=18	=18	=18
!	!LO:TX:b:i:t=dolce	!	!	!	!
(8GG/L	2.g 2.B/	.	4.g/	żuk.	.
8D/	.	.	.	.	.
8E/J	.	.	.	.	.
8D/L	.	.	4r	.	.
8GG/	.	.	.	.	.
8D/J)	.	.	8r	.	.
=19	=19	=19	=19	=19	=19
(8GG/L	2.dd 2.b\	.	2.r	.	.
8D/	.	.	.	.	.
8E/J	.	.	.	.	.
8D/L	.	.	.	.	.
8GG/	.	.	.	.	.
8D/J)	.	.	.	.	.
=20	=20	=20	=20	=20	=20
4.D 4.GG;</	4.gg 4.b;\	.	4r;	.	.
.	.	.	8r	.	.
4r	4r	.	4r	.	.
8r	8b 8d/	.	8b\	O	.
!!LO:PB:g=original
=21	=21	=21	=21	=21	=21
(8GG/L	(4b 4d/	.	4b\	patrz!	.
8D/	.	.	.	.	.
8E/J	8cc 8g/	.	8cc\	sia-	.
8GG/L	4b 4d/	.	4b\	-da-	.
8D/	.	.	.	.	.
8E/J	8a 8g/	.	8a/	-ją	.
=22	=22	=22	=22	=22	=22
8GG/L	4.b 4.d/	.	4.b\	waż-	.
8D/	.	.	.	.	.
8E/J	.	.	.	.	.
8GG/L	4d 4B/)	.	8d/	-ki,	.
8D/	.	.	8r	.	.
8E/J)	8e 8c/	.	8e/	swa-	.
=23	=23	=23	=23	=23	=23
(8GG/L	4g 4B/	.	4g/	-wol-	.
8D/	.	.	.	.	.
8E/J	8e 8c/	.	8e/	-ne	.
8GG/L	4g 4B/	.	4g/	da-	.
8D/	.	.	.	.	.
8E/J	8e 8c/	.	8e/	-my	.
=24	=24	=24	=24	=24	=24
8GG/L	[4.g [4.B/	.	[4.g/	dwie,	.
8D/	.	.	.	.	.
8E/J	.	.	.	.	.
8D/L	4g] 4B/]	.	4g/]	.	.
8GG/	.	.	.	.	.
8D/J)	8b 8d/	.	8b\	do	.
=25	=25	=25	=25	=25	=25
(8GG/L	(4b 4d/	.	4b\	wo-	.
8D/	.	.	.	.	.
8E/J	8cc 8g/	.	8cc\	-dy	.
8GG/L	4b 4d/	.	4b\	dla	.
8D/	.	.	.	.	.
8E/J	8a 8g/	.	8a/	i-	.
!!LO:LB:g=original
=26	=26	=26	=26	=26	=26
8GG/L	4.b 4.d/	.	4.b\	-grasz-	.
8D/	.	.	.	.	.
8E/J	.	.	.	.	.
8D/L	4d 4B/)	.	4d/	-ki	.
8GG/	.	.	.	.	.
8D/J)	8b 8g/	.	8b\	pchnąć	.
=27	=27	=27	=27	=27	=27
(8AA/L	(4a 4f#'/	.	4a/	je-	.
8D/J)	.	.	.	.	.
8r	8dd 8f#'/)	.	8dd\	-dna	.
8AA\L	(4cc#X 4e/	.	4cc#X\	dru-	.
8A\J	.	.	.	.	.
8r	8ee 8g'\)	.	8ee\	-gą	.
=28	=28	=28	=28	=28	=28
(8D\L	[4.dd [4.f#/	.	[4.dd\	chce.	.
8A\	.	.	.	.	.
8B\J	.	.	.	.	.
8A\L	8dd] 8f#/]	.	4dd\]	.	.
!	!	!LO:DY:cj	!	!	!
8D\J)	(8f#L 8d/	mf	.	.	.
8r	8gJ 8e/)	.	8r	.	.
=29	=29	=29	=29	=29	=29
(8AA/L	(4a 4f#/	.	2.r	.	.
8D/J)	.	.	.	.	.
8r	8ff# 8a'\)	.	.	.	.
8AA\L	(4ee 4g'\	.	.	.	.
8A\J	.	.	.	.	.
8r	8cc#X 8e'/)	.	.	.	.
=30	=30	=30	=30	=30	=30
(8DD/L	[4.dd [4.f#/	.	4r	.	.
8AA/	.	.	.	.	.
8D/J	.	.	8r	.	.
8DD/L	4dd] 4f#/]	.	4r	.	.
8AA/	.	.	.	.	.
8D/J	8d/	p	8d/	Niech	.
!!LO:LB:g=original
=31	=31	=31	=31	=31	=31
8DD/L	4e 4c/	.	4e/	tyl-	.
8AA/	.	.	.	.	.
8D/J	8e/	.	8e/	-ko	.
8DD/L	4cc 4f#/	.	4cc\	wiatr	.
8AA/	.	.	.	.	.
8D/J)	8cc\	.	8cc\	nie	.
=32	=32	=32	=32	=32	=32
8DD/L	4b 4g/	.	4b\	spło-	.
8GG/	.	.	.	.	.
8D/J	8b 8g/	.	8b\	-szy	.
8DD/L	4d 4B/	.	4d/	dam,	.
8GG/	.	.	.	.	.
8D/J	8d 8B/	.	8d/	bu-	.
=33	=33	=33	=33	=33	=33
8DD/L	4c 4A/	.	4c/	-ja-	.
8AA/	.	.	.	.	.
8D/J	8c/	.	8c/	-jąc	.
8DD/L	4a 4c/	.	4a/	fa-	.
8FF#/	.	.	.	.	.
8D/J	8a 8c/	.	8a/	-lą	.
=34	=34	=34	=34	=34	=34
8DD/L	[4.g [4.B/	.	[4.g/	wzdłuż,	.
8GG/	.	.	.	.	.
8D/J	.	.	.	.	.
8DD/L	4g] 4B/]	.	4g/]	.	.
8GG/	.	.	.	.	.
8D/J	8d 8B/	.	8d/	za-	.
=35	=35	=35	=35	=35	=35
8DD/L	4e 4c/	<	4e/	-le-	<
8AA/	.	.	.	.	.
8D/J	8e/	.	8e/	-je	.
8DD/L	4cc 4f#/	.	4cc\	ca-	.
8AA/	.	.	.	.	.
8D/J	8cc\	[[	8cc\	-łą	[[
!!LO:LB:g=original
=36	=36	=36	=36	=36	=36
4.DD#X/	4.b 4.a 4.f#/	.	4b\	tra-	.
.	.	.	8b\	-twę	.
4.EE/	4.b 4.g 4.e/	.	4b\	nam	.
.	.	.	8b\	i	.
=37	=37	=37	=37	=37	=37
4C/	4ee 4a 4g\	f	4ee\	po	f
8r	8r	.	8dd\	za-	.
4D\	4.f# 4.d 4.c/	.	8cc\L	-ba-	.
.	.	.	8b\J	.	.
8ryy	.	.	8a/	-wie	.
=38	=38	=38	=38	=38	=38
(8GG/L	2.g 2.d 2.B/	>]	2.g/	już.	.
8D/	.	.	.	.	.
8E/J	.	.	.	.	.
8D/L	.	.	.	.	.
8GG/	.	.	.	.	.
8D/J)	.	.	.	.	.
=39	=39	=39	=39	=39	=39
(8GG/L	2.dd 2.b\	p	2.r	.	.
8D/	.	.	.	.	.
8E/J	.	.	.	.	.
8D/L	.	.	.	.	.
8GG/	.	.	.	.	.
[>8D/J)	.	.	.	.	.
=40	=40	=40	=40	=40	=40
2.D] 2.GG;</	2.gg 2.b;\	.	2.r;	.	.
==	==	==	==	==	==
*-	*-	*-	*-	*-	*-
!!!system-decoration: vox{(klav)}
!!!RDF**kern: > = above
!!!RDF**kern: < = below
!!!ENC: Andrzej Gręziak
!!!END: 2025-03-25
!!!EED: Andrzej Kubiczek
!!!EEV: 2025-03-29
